public/assets/images/career/11.svg

<svg width="20" height="20" viewBox="0 0 20 20" fill="none" xmlns="http://www.w3.org/2000/svg">
<path fill-rule="evenodd" clip-rule="evenodd" d="M7.22215 10.4073C8.0444 10.9568 9.0111 11.25 10 11.25C11.3256 11.2485 12.5965 10.7212 13.5339 9.78386C14.4712 8.8465 14.9985 7.57562 15 6.25C15 5.2611 14.7068 4.2944 14.1574 3.47215C13.6079 2.64991 12.8271 2.00904 11.9134 1.6306C10.9998 1.25217 9.99446 1.15315 9.02455 1.34608C8.05465 1.539 7.16373 2.01521 6.46447 2.71447C5.76521 3.41373 5.289 4.30465 5.09608 5.27455C4.90315 6.24446 5.00217 7.24979 5.3806 8.16342C5.75904 9.07705 6.39991 9.85794 7.22215 10.4073ZM7.91661 3.13199C8.5333 2.71994 9.25832 2.5 10 2.5C10.9942 2.50111 11.9474 2.89655 12.6504 3.59958C13.3535 4.3026 13.7489 5.25578 13.75 6.25C13.75 6.99168 13.5301 7.71671 13.118 8.33339C12.706 8.95008 12.1203 9.43072 11.4351 9.71455C10.7498 9.99838 9.99584 10.0726 9.26841 9.92795C8.54098 9.78325 7.8728 9.4261 7.34835 8.90165C6.8239 8.37721 6.46675 7.70902 6.32206 6.98159C6.17736 6.25416 6.25163 5.50016 6.53545 4.81494C6.81928 4.12972 7.29993 3.54405 7.91661 3.13199ZM11.875 7.24125L10.625 5.99125V3.75H9.375V6.50875L10.9913 8.125L11.875 7.24125ZM2.5 18.75H17.5C17.8314 18.7497 18.1492 18.6178 18.3835 18.3835C18.6178 18.1492 18.7497 17.8314 18.75 17.5V13.75C18.7497 13.4186 18.6178 13.1008 18.3835 12.8665C18.1492 12.6322 17.8314 12.5003 17.5 12.5H2.5C2.16859 12.5003 1.85085 12.6322 1.6165 12.8665C1.38216 13.1008 1.25035 13.4186 1.25 13.75V17.5C1.25035 17.8314 1.38216 18.1492 1.6165 18.3835C1.85085 18.6178 2.16859 18.7497 2.5 18.75ZM2.5 17.5V13.75H17.5V17.5H2.5ZM5 15.625C5 15.9702 4.72018 16.25 4.375 16.25C4.02982 16.25 3.75 15.9702 3.75 15.625C3.75 15.2798 4.02982 15 4.375 15C4.72018 15 5 15.2798 5 15.625Z" fill="#050D20"/>
</svg>

<svg xmlns="http://www.w3.org/2000/svg" width="20" height="20" fill="none" viewBox="0 0 20 20"><path fill="#050d20" fill-rule="evenodd" d="M7.222 10.407a5 5 0 1 0 5.556-8.313 5 5 0 0 0-5.556 8.313m.695-7.275a3.75 3.75 0 1 1 4.166 6.236 3.75 3.75 0 0 1-4.166-6.236m3.958 4.11-1.25-1.25V3.75h-1.25v2.759l1.616 1.616zM2.5 18.75h15a1.25 1.25 0 0 0 1.25-1.25v-3.75a1.25 1.25 0 0 0-1.25-1.25h-15a1.25 1.25 0 0 0-1.25 1.25v3.75a1.25 1.25 0 0 0 1.25 1.25m0-1.25v-3.75h15v3.75zM5 15.625a.625.625 0 1 1-1.25 0 .625.625 0 0 1 1.25 0" clip-rule="evenodd"/></svg>
